app/dist/common/images/amadeus-fire-ag.svg

<svg height="18" viewBox="0 0 18 18" width="18" xmlns="http://www.w3.org/2000/svg"><path d="m0 0h18v18h-18z" fill="#f0f3fa"/><path d="m12 6.07v6.93h3v-9a14.8 14.8 0 0 1 -3 2.07zm-5 1.43v5.5h4v-6.5c-1.28.46-2.61.8-4 1zm-4 .54v4.96h3v-5a14.98 14.98 0 0 1 -3 .04z" fill="#ea0a1f"/></svg>

<!-- by TradingView --><svg width="18" height="18" viewBox="0 0 18 18" xmlns="http://www.w3.org/2000/svg"><path fill="#F0F3FA" d="M0 0h18v18H0z"/><path d="M12 6.07V13h3V4a14.8 14.8 0 0 1-3 2.07ZM7 7.5V13h4V6.5c-1.28.46-2.61.8-4 1ZM3 8.04V13h3V8a14.98 14.98 0 0 1-3 .04Z" fill="#EA0A1F"/></svg>
